X:42
T:Seymour's Whim
M:6/8
L:1/8
B:Thompson's Compleat Collection of 200 Favourite Country Dances, vol. 2 (London, 1765)
Z:Transcribed and edited by Flynn Titford-Mock, 2007
Z:abc's:AK/Fiddler's Companion
K:D
B/c/ | dAd edc | d2d d2e | fga agf | ecA A2 B/c/ | dcd edc | d2d d2e | fga ba^g | (a3 a2) :|
|: a | aAa agf | g2g g2g | gGg gfe | f2f f2e | dAd eAe | fAf gab | agf edc | d3 D2 :|

